X:20
T:Smiling Peggy
C:from Edward Winder's ms2
M:C
L:1/8
K:D
f2Bb fBde|f2Ba eAce|f2Bb fBde|a2b/2a/2g/2f/2 eAce:|
|:B/2B/2B fB dBfB|B/2B/2B fB cAeA|B/2B/2B fB dBfB|a2b/2a/2g/2f/2 eAce:|
%%vskip 1cm
